X:43
T:Men and Their Milk Fantasies
R:double jig
C: 1979, 2010 L.E. McCullough  
M:6/8
L:1/8
K:D
~f3 edB|~A3 DFA|DFA def|edB ~e3|
~f3 edB|~A3 DFA|DFA def|edc d3:| 
|:~f3 afe|edB ~A3|~f3 afe|afd ~e3|
~f3 afe|edB ~A3|dBA ~f3|edc d3:|
<end>
<start>
